!!! OTL: Berkowitz123
!!! Chapter: 1
!!! Section: I
!!! Page: 29
!!! Mode: 
!!! Encoder: DJB
**kern
*staff1
*I"Piano
*clefF4
*k[b-]
*F:
*M3/4
4C/
=1
4.F\
16G\LL
16F\JJ
8E\L
8F\J
=2
4G\
4A\
4B-\
=3
4.A\
8G\
4F\
=4
4G\
4r
4F\
=5
4.B-\
16c\LL
16B-\JJ
8A\L
8G\J
=6
4A\
4F\
4A\
=7
4.G\
8F\
8E\L
8D\J
=8
4C/
4r
4c\
=9
!!linebreak:original
4.F\
16G\LL
16F\JJ
8E\L
8F\J
=10
4G\
4A\
4B-\
=11
4.c\
8A\
8B-\L
8c\J
=12
2d\
8c\L
8B-\J
=13
4.A\
16B-\LL
16A\JJ
8G\L
8F\J
=14
4.G\
16A\LL
16G\JJ
8F\L
8E\J
=15
4F\
4c\
4A\
=16
4F\
2r
==
*-
